lib/brands/icons/grammarly.svg

<svg xmlns="http://www.w3.org/2000/svg" fill="none" aria-hidden="true" viewBox="0 0 48 48"><g id="grammarly-Icon"><g id="Group"><path id="Fill-19" fill="#15C39A" fill-rule="evenodd" d="M42 23.9992C42 33.8803 33.9419 41.8914 23.9992 41.8914C14.0581 41.8914 6 33.8803 6 23.9992C6 14.1181 14.0581 6.1086 23.9992 6.1086C33.9419 6.1086 42 14.1181 42 23.9992Z" clip-rule="evenodd"/><path id="Fill-22" fill="#FEFEFE" fill-rule="evenodd" d="M27.5511 26.4238C26.8038 26.4238 26.2124 27.094 26.3521 27.8626C26.4577 28.4488 27.0117 28.8493 27.6112 28.8493H29.4974L30.5907 28.6975C28.841 31.2473 25.8046 32.4213 22.4823 31.9045C19.7805 31.4815 17.4573 29.6648 16.4777 27.1263C14.2535 21.3614 18.4889 15.8597 24.0062 15.8597C26.8834 15.8597 29.4048 17.5326 30.8507 19.5528C30.8507 19.5528 30.8523 19.5948 30.8523 19.5964C31.2373 20.147 31.996 20.3037 32.55 19.9226C33.0764 19.5609 33.221 18.8713 32.9058 18.3304H32.914C30.9124 15.2267 27.3188 13.2404 23.2767 13.5101C18.0145 13.8605 13.7548 18.1414 13.4526 23.3767C13.1001 29.4662 17.9609 34.4398 24.0062 34.4398C27.1823 34.4398 30.0254 33.0656 31.9636 30.8404L31.7329 32.1161V33.2691C31.7329 33.8633 32.1374 34.4156 32.7255 34.5205C33.5004 34.6594 34.173 34.0716 34.173 33.3288V26.4238H27.5511Z" clip-rule="evenodd"/></g></g></svg>

<svg xmlns="http://www.w3.org/2000/svg" fill="none" aria-hidden="true" viewBox="0 0 48 48"><path fill="#15C39A" fill-rule="evenodd" d="M42 24c0 9.88-8.058 17.891-18 17.891S6 33.881 6 24c0-9.88 8.058-17.89 18-17.89S42 14.12 42 24Z" clip-rule="evenodd"/><path fill="#FEFEFE" fill-rule="evenodd" d="M27.551 26.424c-.747 0-1.338.67-1.199 1.439.106.586.66.986 1.26.986h1.886l1.093-.151c-1.75 2.55-4.786 3.723-8.108 3.206-2.702-.422-5.026-2.24-6.005-4.778-2.224-5.765 2.011-11.266 7.528-11.266 2.878 0 5.399 1.673 6.845 3.693l.002.043c.385.551 1.143.708 1.697.327a1.192 1.192 0 0 0 .356-1.593h.008a10.581 10.581 0 0 0-9.637-4.82c-5.262.35-9.522 4.631-9.824 9.867-.353 6.09 4.508 11.063 10.553 11.063a10.49 10.49 0 0 0 7.958-3.6l-.23 1.276v1.153c0 .594.404 1.147.992 1.252a1.219 1.219 0 0 0 1.447-1.192v-6.905h-6.622Z" clip-rule="evenodd"/></svg>
